X:98
T: WEM WOELL WIR DIESEN REBNER BRINGEN
N: E1126A
O: Europa, Mitteleuropa, Deutschland
R: Trink -, Zech - Lied
M: 3/4
L: 1/8
K: C
 | C2C2C2 | E4F2 | G4G2 | E2E2
EF | G4G2 | E2E2F2 | G2G2G2 | E2E2
E2 | E2E2E2 | E4E2 | F4E2 | D2D2
D2 | C4A,2 | C4
E2 | E2E2E2 | E4E2 | F4E2 | D2D2
D2 | C4A,2 | C6

@@@ Tune index: 4782
